packages/sources/icons/src/vitamix/settings-fill.svg

<svg width="16" height="16" viewBox="0 0 16 16" xmlns="http://www.w3.org/2000/svg"><path fill-rule="evenodd" clip-rule="evenodd" d="M9.36328 1.47198C8.46381 1.28428 7.53524 1.28474 6.63595 1.47331C6.51434 2.27393 6.03491 2.97631 5.33328 3.38065C4.6318 3.7863 3.78374 3.85035 3.02928 3.55465C2.41736 4.24005 1.95306 5.04406 1.66528 5.91665C2.2987 6.42224 2.66728 7.18886 2.66662 7.99931C2.6672 8.80908 2.29916 9.57508 1.66662 10.0806C1.95262 10.9542 2.41635 11.7591 3.02862 12.4446C3.78316 12.1485 4.63152 12.2123 5.33328 12.618C6.036 13.0229 6.51581 13.726 6.63662 14.528C7.53618 14.7152 8.46476 14.7143 9.36395 14.5253C9.48556 13.7247 9.96499 13.023 10.6666 12.6186C11.3681 12.213 12.2162 12.1489 12.9706 12.4446C13.5825 11.7592 14.0468 10.9552 14.3346 10.0826C13.724 9.59398 13.3333 8.84265 13.3333 7.99998C13.3323 7.18975 13.7004 6.42318 14.3333 5.91731C14.0472 5.04401 13.5835 4.23935 12.9713 3.55398C12.2166 3.8499 11.3683 3.78585 10.6666 3.37998C9.9644 2.97552 9.48466 2.27321 9.36328 1.47198ZM9.99997 7.99997C9.99997 9.10454 9.10454 9.99997 7.99997 9.99997C6.8954 9.99997 5.99997 9.10454 5.99997 7.99997C5.99997 6.8954 6.8954 5.99997 7.99997 5.99997C9.10454 5.99997 9.99997 6.8954 9.99997 7.99997Z"/></svg>

<svg width="16" height="16" xmlns="http://www.w3.org/2000/svg"><path fill-rule="evenodd" clip-rule="evenodd" d="M9.363 1.472a6.66 6.66 0 0 0-2.727.001 2.663 2.663 0 0 1-3.607 2.082 6.695 6.695 0 0 0-1.364 2.362 2.662 2.662 0 0 1 1.002 2.082c0 .81-.368 1.576-1 2.082.286.873.75 1.678 1.362 2.364a2.662 2.662 0 0 1 2.304.173 2.662 2.662 0 0 1 1.304 1.91c.9.187 1.828.186 2.727-.003.122-.8.601-1.502 1.303-1.906a2.662 2.662 0 0 1 2.304-.174 6.696 6.696 0 0 0 1.364-2.362A2.66 2.66 0 0 1 13.333 8a2.662 2.662 0 0 1 1-2.083 6.66 6.66 0 0 0-1.362-2.363 2.662 2.662 0 0 1-2.304-.174 2.662 2.662 0 0 1-1.304-1.908ZM10 8a2 2 0 1 1-4 0 2 2 0 0 1 4 0Z"/></svg>
